images/3235445.svg

<?xml version="1.0" encoding="UTF-8"?>
<svg xmlns="http://www.w3.org/2000/svg" xmlns:xlink="http://www.w3.org/1999/xlink" width="300pt" height="300pt" viewBox="0 0 300 300" version="1.1">
<defs>
<g>
<symbol overflow="visible" id="glyph0-0">
<path style="stroke:none;" d="M 0.59375 2.125 L 0.59375 -8.46875 L 6.59375 -8.46875 L 6.59375 2.125 Z M 1.265625 1.453125 L 5.9375 1.453125 L 5.9375 -7.78125 L 1.265625 -7.78125 Z M 1.265625 1.453125 "/>
</symbol>
<symbol overflow="visible" id="glyph0-1">
<path style="stroke:none;" d="M 1.171875 -8.75 L 2.765625 -8.75 L 6.65625 -1.4375 L 6.65625 -8.75 L 7.796875 -8.75 L 7.796875 0 L 6.203125 0 L 2.328125 -7.3125 L 2.328125 0 L 1.171875 0 Z M 1.171875 -8.75 "/>
</symbol>
<symbol overflow="visible" id="glyph0-2">
<path style="stroke:none;" d="M 1.171875 -8.75 L 2.359375 -8.75 L 2.359375 -5.15625 L 6.65625 -5.15625 L 6.65625 -8.75 L 7.84375 -8.75 L 7.84375 0 L 6.65625 0 L 6.65625 -4.171875 L 2.359375 -4.171875 L 2.359375 0 L 1.171875 0 Z M 1.171875 -8.75 "/>
</symbol>
</g>
</defs>
<g id="surface39417">
<rect x="0" y="0" width="300" height="300" style="fill:rgb(100%,100%,100%);fill-opacity:1;stroke:none;"/>
<path style="fill:none;stroke-width:1.2;stroke-linecap:butt;stroke-linejoin:miter;stroke:rgb(0%,0%,0%);stroke-opacity:1;stroke-miterlimit:10;" d="M 264.75 127.292969 L 249.210938 152.964844 "/>
<path style="fill:none;stroke-width:1.2;stroke-linecap:butt;stroke-linejoin:miter;stroke:rgb(0%,0%,0%);stroke-opacity:1;stroke-miterlimit:10;" d="M 250.285156 101 L 264.75 127.292969 "/>
<path style="fill:none;stroke-width:1;stroke-linecap:butt;stroke-linejoin:miter;stroke:rgb(0%,0%,0%);stroke-opacity:1;stroke-miterlimit:10;" d="M 219.207031 152.34375 L 219.207031 152.34375 M 222.148438 152.929688 L 222.171875 151.886719 M 225.09375 153.511719 L 225.136719 151.425781 M 228.035156 154.09375 L 228.101562 150.964844 M 230.976562 154.675781 L 231.0625 150.503906 M 233.921875 155.257812 L 234.027344 150.042969 M 236.863281 155.839844 L 236.992188 149.585938 M 239.808594 156.421875 L 239.957031 149.125 M 242.75 157.003906 L 242.921875 148.664062 M 245.691406 157.585938 L 245.886719 148.203125 M 248.636719 158.167969 L 248.851562 147.746094 M 249.101562 158.261719 L 249.320312 147.671875 "/>
<path style="fill:none;stroke-width:1.2;stroke-linecap:butt;stroke-linejoin:miter;stroke:rgb(0%,0%,0%);stroke-opacity:1;stroke-miterlimit:10;" d="M 219.207031 152.34375 L 230.84375 180.007812 "/>
<path style="fill:none;stroke-width:1.2;stroke-linecap:butt;stroke-linejoin:miter;stroke:rgb(0%,0%,0%);stroke-opacity:1;stroke-miterlimit:10;" d="M 219.207031 152.34375 L 204.742188 126.050781 "/>
<path style="fill:none;stroke-width:1.2;stroke-linecap:butt;stroke-linejoin:miter;stroke:rgb(0%,0%,0%);stroke-opacity:1;stroke-miterlimit:10;" d="M 189.300781 154.863281 L 219.207031 152.34375 "/>
<path style="fill:none;stroke-width:1.2;stroke-linecap:butt;stroke-linejoin:miter;stroke:rgb(0%,0%,0%);stroke-opacity:1;stroke-miterlimit:10;" d="M 230.84375 180.007812 L 208.128906 199.621094 "/>
<path style="fill:none;stroke-width:1.2;stroke-linecap:butt;stroke-linejoin:miter;stroke:rgb(0%,0%,0%);stroke-opacity:1;stroke-miterlimit:10;" d="M 208.128906 199.621094 L 195.292969 191.851562 "/>
<path style="fill:none;stroke-width:1.2;stroke-linecap:butt;stroke-linejoin:miter;stroke:rgb(0%,0%,100%);stroke-opacity:1;stroke-miterlimit:10;" d="M 195.292969 191.851562 L 182.457031 184.082031 "/>
<path style="fill:none;stroke-width:1.2;stroke-linecap:butt;stroke-linejoin:miter;stroke:rgb(0%,0%,100%);stroke-opacity:1;stroke-miterlimit:10;" d="M 182.457031 184.082031 L 185.878906 169.472656 "/>
<path style="fill:none;stroke-width:1.2;stroke-linecap:butt;stroke-linejoin:miter;stroke:rgb(0%,0%,0%);stroke-opacity:1;stroke-miterlimit:10;" d="M 185.878906 169.472656 L 189.300781 154.863281 "/>
<path style="fill:none;stroke-width:1.2;stroke-linecap:butt;stroke-linejoin:miter;stroke:rgb(0%,0%,100%);stroke-opacity:1;stroke-miterlimit:10;" d="M 182.457031 184.082031 L 168.625 189.902344 "/>
<path style="fill:none;stroke-width:1.2;stroke-linecap:butt;stroke-linejoin:miter;stroke:rgb(0%,0%,0%);stroke-opacity:1;stroke-miterlimit:10;" d="M 168.625 189.902344 L 154.792969 195.71875 "/>
<path style=" stroke:none;fill-rule:nonzero;fill:rgb(100%,100%,100%);fill-opacity:1;" d="M 178.457031 177.082031 L 187.457031 177.082031 L 187.457031 191.082031 L 178.457031 191.082031 Z M 178.457031 177.082031 "/>
<g style="fill:rgb(0%,0%,100%);fill-opacity:1;">
  <use xlink:href="#glyph0-1" x="178.457031" y="188.220703"/>
</g>
<path style="fill:none;stroke-width:1.2;stroke-linecap:butt;stroke-linejoin:miter;stroke:rgb(0%,0%,0%);stroke-opacity:1;stroke-miterlimit:10;" d="M 154.792969 195.71875 L 130.882812 177.582031 "/>
<path style="fill:none;stroke-width:1.2;stroke-linecap:butt;stroke-linejoin:miter;stroke:rgb(0%,0%,0%);stroke-opacity:1;stroke-miterlimit:10;" d="M 130.882812 177.582031 L 134.636719 147.804688 "/>
<path style="fill:none;stroke-width:1.2;stroke-linecap:butt;stroke-linejoin:miter;stroke:rgb(0%,0%,0%);stroke-opacity:1;stroke-miterlimit:10;" d="M 124.253906 173.71875 L 127.257812 149.902344 "/>
<path style="fill:none;stroke-width:1.2;stroke-linecap:butt;stroke-linejoin:miter;stroke:rgb(0%,0%,0%);stroke-opacity:1;stroke-miterlimit:10;" d="M 103.222656 189.21875 L 130.882812 177.582031 "/>
<path style="fill:none;stroke-width:1.2;stroke-linecap:butt;stroke-linejoin:miter;stroke:rgb(0%,0%,0%);stroke-opacity:1;stroke-miterlimit:10;" d="M 134.636719 147.804688 L 110.730469 129.667969 "/>
<path style="fill:none;stroke-width:1.2;stroke-linecap:butt;stroke-linejoin:miter;stroke:rgb(0%,0%,0%);stroke-opacity:1;stroke-miterlimit:10;" d="M 110.730469 129.667969 L 83.066406 141.304688 "/>
<path style="fill:none;stroke-width:1.2;stroke-linecap:butt;stroke-linejoin:miter;stroke:rgb(0%,0%,0%);stroke-opacity:1;stroke-miterlimit:10;" d="M 110.703125 137.339844 L 88.570312 146.648438 "/>
<path style="fill:none;stroke-width:1.2;stroke-linecap:butt;stroke-linejoin:miter;stroke:rgb(0%,0%,0%);stroke-opacity:1;stroke-miterlimit:10;" d="M 83.066406 141.304688 L 79.3125 171.078125 "/>
<path style="fill:none;stroke-width:1.2;stroke-linecap:butt;stroke-linejoin:miter;stroke:rgb(0%,0%,0%);stroke-opacity:1;stroke-miterlimit:10;" d="M 83.066406 141.304688 L 59.160156 123.167969 "/>
<path style="fill:none;stroke-width:1.2;stroke-linecap:butt;stroke-linejoin:miter;stroke:rgb(0%,0%,0%);stroke-opacity:1;stroke-miterlimit:10;" d="M 79.3125 171.078125 L 103.222656 189.21875 "/>
<path style="fill:none;stroke-width:1.2;stroke-linecap:butt;stroke-linejoin:miter;stroke:rgb(0%,0%,0%);stroke-opacity:1;stroke-miterlimit:10;" d="M 85.972656 167.265625 L 105.097656 181.777344 "/>
<path style="fill:none;stroke-width:1.2;stroke-linecap:butt;stroke-linejoin:miter;stroke:rgb(0%,0%,0%);stroke-opacity:1;stroke-miterlimit:10;" d="M 59.160156 123.167969 L 47.203125 114.097656 "/>
<path style="fill:none;stroke-width:1.2;stroke-linecap:butt;stroke-linejoin:miter;stroke:rgb(0%,0%,100%);stroke-opacity:1;stroke-miterlimit:10;" d="M 47.203125 114.097656 L 35.25 105.027344 "/>
<path style="fill:none;stroke-width:1.2;stroke-linecap:butt;stroke-linejoin:miter;stroke:rgb(0%,0%,0%);stroke-opacity:1;stroke-miterlimit:10;" d="M 61.035156 115.726562 L 51.472656 108.472656 "/>
<path style="fill:none;stroke-width:1.2;stroke-linecap:butt;stroke-linejoin:miter;stroke:rgb(0%,0%,100%);stroke-opacity:1;stroke-miterlimit:10;" d="M 51.472656 108.472656 L 41.910156 101.214844 "/>
<path style="fill:none;stroke-width:1.2;stroke-linecap:butt;stroke-linejoin:miter;stroke:rgb(0%,0%,0%);stroke-opacity:1;stroke-miterlimit:10;" d="M 52.5 126.976562 L 42.9375 119.722656 "/>
<path style="fill:none;stroke-width:1.2;stroke-linecap:butt;stroke-linejoin:miter;stroke:rgb(0%,0%,100%);stroke-opacity:1;stroke-miterlimit:10;" d="M 42.9375 119.722656 L 33.371094 112.46875 "/>
<path style=" stroke:none;fill-rule:nonzero;fill:rgb(100%,100%,100%);fill-opacity:1;" d="M 26.25 98.027344 L 35.25 98.027344 L 35.25 112.027344 L 26.25 112.027344 Z M 26.25 98.027344 "/>
<g style="fill:rgb(0%,0%,100%);fill-opacity:1;">
  <use xlink:href="#glyph0-1" x="26.25" y="109.166016"/>
</g>
<path style="fill:none;stroke-width:1.2;stroke-linecap:butt;stroke-linejoin:miter;stroke:rgb(0%,0%,0%);stroke-opacity:1;stroke-miterlimit:10;" d="M 204.742188 126.050781 L 212.511719 113.214844 "/>
<path style="fill:none;stroke-width:1.2;stroke-linecap:butt;stroke-linejoin:miter;stroke:rgb(0%,0%,100%);stroke-opacity:1;stroke-miterlimit:10;" d="M 212.511719 113.214844 L 220.28125 100.378906 "/>
<path style="fill:none;stroke-width:1.2;stroke-linecap:butt;stroke-linejoin:miter;stroke:rgb(0%,0%,100%);stroke-opacity:1;stroke-miterlimit:10;" d="M 220.28125 100.378906 L 235.285156 100.6875 "/>
<path style="fill:none;stroke-width:1.2;stroke-linecap:butt;stroke-linejoin:miter;stroke:rgb(0%,0%,0%);stroke-opacity:1;stroke-miterlimit:10;" d="M 235.285156 100.6875 L 250.285156 101 "/>
<path style=" stroke:none;fill-rule:nonzero;fill:rgb(100%,100%,100%);fill-opacity:1;" d="M 211.28125 93.378906 L 229.28125 93.378906 L 229.28125 107.378906 L 211.28125 107.378906 Z M 211.28125 93.378906 "/>
<g style="fill:rgb(0%,0%,100%);fill-opacity:1;">
  <use xlink:href="#glyph0-1" x="211.28125" y="104.517578"/>
  <use xlink:href="#glyph0-2" x="220.257812" y="104.517578"/>
</g>
</g>
</svg>

<svg xmlns="http://www.w3.org/2000/svg" xmlns:xlink="http://www.w3.org/1999/xlink" width="300pt" height="300pt" viewBox="0 0 300 300"><defs><symbol overflow="visible"><path d="M.594 2.125V-8.47h6V2.126zm.672-.672h4.671V-7.78h-4.67zm0 0"/></symbol><symbol overflow="visible" id="a"><path d="M1.172-8.75h1.594l3.89 7.313V-8.75h1.14V0H6.204L2.328-7.313V0H1.172zm0 0"/></symbol><symbol overflow="visible" id="b"><path d="M1.172-8.75H2.36v3.594h4.296V-8.75h1.188V0H6.656v-4.172H2.36V0H1.17zm0 0"/></symbol></defs><g><path fill="#fff" d="M0 0h300v300H0z"/><path d="M264.75 127.293l-15.54 25.672M250.285 101l14.465 26.293" stroke-width="1.2" stroke="#000" stroke-miterlimit="10" fill="none"/><path d="M219.207 152.344m2.94.586l.025-1.043m2.922 1.625l.043-2.086m2.898 2.668l.067-3.13m2.875 3.712l.085-4.172m2.86 4.754l.105-5.215m2.836 5.797l.13-6.254m2.816 6.836l.147-7.297m2.793 7.88l.172-8.34m2.77 8.92l.195-9.382m2.75 9.965l.215-10.422m.25 10.516l.218-10.59" stroke="#000" stroke-miterlimit="10" fill="none"/><path d="M219.207 152.344l11.637 27.664M219.207 152.344l-14.465-26.293M189.3 154.863l29.907-2.52M230.844 180.008L208.13 199.62M208.13 199.62l-12.837-7.768" stroke-width="1.2" stroke="#000" stroke-miterlimit="10" fill="none"/><path d="M195.293 191.852l-12.836-7.77M182.457 184.082l3.422-14.61" stroke-width="1.2" stroke="#00f" stroke-miterlimit="10" fill="none"/><path d="M185.88 169.473l3.42-14.61" stroke-width="1.2" stroke="#000" stroke-miterlimit="10" fill="none"/><path d="M182.457 184.082l-13.832 5.82" stroke-width="1.2" stroke="#00f" stroke-miterlimit="10" fill="none"/><path d="M168.625 189.902l-13.832 5.817" stroke-width="1.2" stroke="#000" stroke-miterlimit="10" fill="none"/><path d="M178.457 177.082h9v14h-9zm0 0" fill="#fff"/><use xlink:href="#a" x="178.457" y="188.221" fill="#00f"/><path d="M154.793 195.72l-23.91-18.138M130.883 177.582l3.754-29.777M124.254 173.72l3.004-23.818M103.223 189.22l27.66-11.638M134.637 147.805l-23.907-18.137M110.73 129.668l-27.664 11.637M110.703 137.34l-22.133 9.308M83.066 141.305l-3.754 29.773M83.066 141.305L59.16 123.168M79.313 171.078l23.91 18.14M85.973 167.266l19.125 14.51M59.16 123.168l-11.957-9.07" stroke-width="1.2" stroke="#000" stroke-miterlimit="10" fill="none"/><path d="M47.203 114.098l-11.953-9.07" stroke-width="1.2" stroke="#00f" stroke-miterlimit="10" fill="none"/><path d="M61.035 115.727l-9.562-7.254" stroke-width="1.2" stroke="#000" stroke-miterlimit="10" fill="none"/><path d="M51.473 108.473l-9.563-7.258" stroke-width="1.2" stroke="#00f" stroke-miterlimit="10" fill="none"/><path d="M52.5 126.977l-9.563-7.254" stroke-width="1.2" stroke="#000" stroke-miterlimit="10" fill="none"/><path d="M42.938 119.723l-9.567-7.254" stroke-width="1.2" stroke="#00f" stroke-miterlimit="10" fill="none"/><path d="M26.25 98.027h9v14h-9zm0 0" fill="#fff"/><use xlink:href="#a" x="26.25" y="109.166" fill="#00f"/><path d="M204.742 126.05l7.77-12.835" stroke-width="1.2" stroke="#000" stroke-miterlimit="10" fill="none"/><path d="M212.512 113.215l7.77-12.836M220.28 100.38l15.005.308" stroke-width="1.2" stroke="#00f" stroke-miterlimit="10" fill="none"/><path d="M235.285 100.688l15 .312" stroke-width="1.2" stroke="#000" stroke-miterlimit="10" fill="none"/><path d="M211.28 93.38h18v14h-18zm0 0" fill="#fff"/><g fill="#00f"><use xlink:href="#a" x="211.281" y="104.518"/><use xlink:href="#b" x="220.258" y="104.518"/></g></g></svg>
